svgs/cco/file-pdf.svg

<svg xmlns="http://www.w3.org/2000/svg" viewBox="0 0 16 16" class="symbol symbol-file-pdf" aria-labelledby="title" role="img"><title id="title">file-pdf icon</title><g data-name="Layer 1"><path class="cls-1" d="M9.845 0H2.35a.8.8 0 0 0-.8.8v14.4a.8.8 0 0 0 .8.8h11.3a.8.8 0 0 0 .8-.8V4.15zm2.564 4.155l-2.453.007a.118.118 0 0 1-.118-.118V1.85zm.7 10.5H2.9V1.35h5.6v2.691a1.468 1.468 0 0 0 1.46 1.471L13.1 5.5z" role="presentation"/><path class="cls-1" d="M10.8 10.184a1.069 1.069 0 0 0-1.017-.459 4.028 4.028 0 0 0-.695.059 7.89 7.89 0 0 1-1.032-1.535C8.36 6.941 8.17 6.517 8 6.308a.758.758 0 0 0-.581-.275.975.975 0 0 0-.262.046.8.8 0 0 0-.519.487 2.4 2.4 0 0 0 .274 1.8 16.238 16.238 0 0 1-.842 2.365c-1 .474-1.5.943-1.563 1.473a.933.933 0 0 0 .409.872.71.71 0 0 0 .441.156 1.27 1.27 0 0 0 .967-.663 6.8 6.8 0 0 0 .565-.993 12.764 12.764 0 0 1 1.823-.594 1.784 1.784 0 0 0 1.144.526.983.983 0 0 0 .814-.435.8.8 0 0 0 .13-.889zm-.736.451a.213.213 0 0 1-.206.112.949.949 0 0 1-.506-.244c.169-.019.319-.037.431-.037a.678.678 0 0 1 .337.056c-.02.038-.02.078-.06.113zM5.243 12.3c.019-.131.225-.375.75-.675-.394.731-.6.825-.637.844-.113-.091-.113-.147-.113-.169zM7.4 7.617a1.241 1.241 0 0 1-.075-.75q.028-.056.056-.056H7.4a1.59 1.59 0 0 1 0 .806zm.131 1.275a9.718 9.718 0 0 0 .937 1.368 12.092 12.092 0 0 0-1.593.506 17.1 17.1 0 0 0 .654-1.874z" role="presentation"/></g></svg>

<svg xmlns="http://www.w3.org/2000/svg" viewBox="0 0 16 16" aria-labelledby="title" role="img" class="symbol symbol-file-pdf"><title id="title">file-pdf icon</title><g id="Layer_1" data-name="Layer 1"><path d="M9.84,0H2.35a.8.8,0,0,0-.8.8V15.2a.8.8,0,0,0,.8.8h11.3a.8.8,0,0,0,.8-.8v-11Zm2.56,4.16H10A.12.12,0,0,1,9.84,4V1.85Zm.7,10.5H2.9V1.35h5.6V4A1.47,1.47,0,0,0,10,5.51H13.1Z" style="fill:#020202" role="presentation"/><path d="M10.8,10.18a1.07,1.07,0,0,0-1-.46,4,4,0,0,0-.69.06,7.89,7.89,0,0,1-1-1.54c.3-1.31.11-1.73-.06-1.94A.76.76,0,0,0,7.42,6a1,1,0,0,0-.26,0,.79.79,0,0,0-.52.49,2.4,2.4,0,0,0,.27,1.8,16.24,16.24,0,0,1-.84,2.36c-1,.47-1.5.94-1.56,1.47a.93.93,0,0,0,.41.87.71.71,0,0,0,.44.16,1.27,1.27,0,0,0,1-.66,6.8,6.8,0,0,0,.57-1A12.76,12.76,0,0,1,8.71,11a1.78,1.78,0,0,0,1.14.53,1,1,0,0,0,.81-.44A.8.8,0,0,0,10.8,10.18Zm-.74.45a.21.21,0,0,1-.21.11,1,1,0,0,1-.51-.24l.43,0a.68.68,0,0,1,.34.06S10.1,10.6,10.06,10.63ZM5.24,12.3c0-.13.22-.37.75-.67-.39.73-.6.82-.64.84S5.24,12.32,5.24,12.3ZM7.4,7.62a1.24,1.24,0,0,1-.07-.75s0-.06.06-.06h0A1.59,1.59,0,0,1,7.4,7.62Zm.13,1.27a9.72,9.72,0,0,0,.94,1.37,12.09,12.09,0,0,0-1.59.51A17.1,17.1,0,0,0,7.53,8.89Z" style="fill:#020202" role="presentation"/></g></svg>
